X: 717
T: Ahane, The
R: hornpipe
M: 4/4
K: Gmajor
|:z2|BG G2 AFDF|Ec c2 edcA|Bdge dBGB|Add^c (3 ded (3 cBA|
BG G2 AFDF|Ec c2 edcA|Bdgd dBFG|AGGF G2:|
|:FG|AD D2 ADBD|GFGA (3BAG AF|Ec c2 edcA|Add^c de (3fed|
GedB GA (3BAG|cBcd edcA|Bdge dBFG|AGGF G2:|

